images/fitness_theme_dark.svg

<svg width="50" height="50" viewBox="0 0 50 50" fill="none" xmlns="http://www.w3.org/2000/svg">
<path fill-rule="evenodd" clip-rule="evenodd" d="M27.5474 0.120118C27.3811 0.183226 27.0556 0.37255 26.824 0.540871C26.5278 0.756278 26.3149 1.02864 26.1051 1.46014L25.8072 2.07324V7.01345L25.2608 6.75076C24.7824 6.5207 24.5963 6.48797 23.7643 6.48748C22.8918 6.487 22.7617 6.51259 22.172 6.7997C21.8188 6.97174 21.2943 7.34149 21.0065 7.62138C20.689 7.93008 20.3727 8.36422 20.2022 8.72518C20.0477 9.05235 19.8781 9.60703 19.8252 9.95774C19.7639 10.365 19.7612 10.7967 19.8175 11.1525C19.866 11.4589 19.9903 11.9061 20.0936 12.1463L20.2816 12.5832L15.2294 12.6123C10.3002 12.6408 10.1666 12.6466 9.7381 12.8503C9.49648 12.9651 9.11909 13.2261 8.89932 13.4302C8.67955 13.6343 8.38814 14.024 8.2516 14.2961C8.05046 14.697 8.00285 14.9294 8.0001 15.5234C7.99744 16.088 8.04808 16.3743 8.22101 16.7718C8.35612 17.0826 8.63005 17.4583 8.91034 17.7174C9.16602 17.9538 9.57715 18.2156 9.82381 18.2991C10.1242 18.4009 11.6072 18.5474 14.3157 18.7429C17.5264 18.9748 18.4882 19.0759 18.9857 19.2338C19.3303 19.3433 19.8768 19.6144 20.2003 19.8366C20.5237 20.0586 20.9589 20.4623 21.1675 20.7335C21.3761 21.0048 21.6443 21.4271 21.7636 21.6721C21.883 21.917 22.0346 22.3534 22.1007 22.6417C22.1669 22.9304 22.1995 23.4351 22.1732 23.7651C22.147 24.0947 22.0367 24.6721 21.9279 25.0482C21.8192 25.4243 21.686 26.1057 21.6317 26.5624C21.568 27.0998 21.5642 27.6698 21.6209 28.1779C21.6692 28.6097 21.7599 29.1812 21.8225 29.4479C21.8852 29.7145 22.1064 30.3647 22.3141 30.8926L22.6917 31.8525L18.5666 41.5726L18.0285 41.8767C17.7326 42.044 17.3134 42.3128 17.0969 42.474C16.8288 42.6737 16.6078 42.9667 16.4036 43.3932C16.1601 43.9017 16.1043 44.1368 16.1066 44.6447C16.1081 44.9887 16.1509 45.4145 16.2018 45.591C16.2528 45.7676 16.3794 46.0534 16.4834 46.226C16.5874 46.3987 16.793 46.6577 16.9404 46.8014C17.0878 46.9451 18.2508 47.7025 19.5249 48.4845C20.799 49.2665 21.9898 49.9349 22.1709 49.9699C22.3522 50.0049 22.7528 50.01 23.0612 49.9812C23.42 49.9477 23.7733 49.8377 24.0425 49.6756C24.2737 49.5362 24.5958 49.2572 24.7583 49.0557C24.9207 48.8542 25.1211 48.4521 25.2036 48.1622C25.2913 47.854 25.3354 47.4401 25.3098 47.1656C25.2856 46.9074 25.1611 46.4852 25.033 46.2274C24.9049 45.9695 24.5722 45.3963 24.2936 44.9536L23.7871 44.1487L26.0249 40.1133L26.3981 41.031C26.6034 41.5357 27.0184 42.5655 27.3205 43.3193L27.8697 44.6899L27.4323 45.5174C27.0158 46.3049 26.9948 46.3823 26.9948 47.1262C26.9948 47.7411 27.0407 48.0036 27.2102 48.3571C27.3286 48.6043 27.5852 48.9712 27.7803 49.1726C27.9754 49.374 28.306 49.6334 28.5151 49.749C28.878 49.9498 29.0331 49.9606 31.9584 49.9887C34.8015 50.016 35.0511 50.0047 35.4313 49.8319C35.6566 49.7294 35.9895 49.5113 36.1711 49.3474C36.3527 49.1835 36.5981 48.8501 36.7164 48.6065C36.8346 48.363 36.9563 47.9487 36.9865 47.6857C37.0217 47.3799 36.9874 47.0161 36.8912 46.6759C36.8047 46.3698 36.5931 45.9666 36.3928 45.726C36.124 45.4032 35.7389 45.1508 34.7028 44.6185C33.9647 44.2394 33.3445 43.9137 33.3245 43.8947C33.3045 43.8758 33.0809 42.5168 32.8277 40.8748C32.5744 39.2327 32.3274 37.813 32.279 37.7198C32.279 37.5292 30.8796 28.2263 30.6922 27.0292L30.3514 24.8528L30.4033 22.3617C30.4383 20.6816 30.5013 19.6639 30.5966 19.2356C30.6746 18.8864 30.9522 17.9773 31.2138 17.2157C31.4753 16.4539 31.7631 15.4428 31.8533 14.9688C31.9633 14.3904 32.0156 13.6569 32.012 12.7392C32.0084 11.8127 31.851 9.85263 31.5241 6.66333C31.0879 2.40862 31.0189 1.90981 30.8082 1.48573C30.6798 1.22754 30.4321 0.875949 30.2575 0.704405C30.0831 0.532763 29.7479 0.302995 29.5127 0.193679C29.2173 0.0563262 28.8942 -0.00346032 28.4676 0.000154225C28.1279 0.00308494 27.7138 0.0570101 27.5474 0.120118ZM30.8747 41.216C30.6539 39.7921 30.471 38.4411 30.4681 38.2135C30.337 37.3632 28.6351 26.6101 28.608 26.4891L28.559 26.2693H23.6369L23.5685 26.9266C23.5219 27.3746 23.5465 27.8536 23.6461 28.4308C23.7671 29.1332 24.291 30.5172 26.7164 36.5413C28.3248 40.5361 29.6493 43.8176 29.6597 43.8332C29.6703 43.8488 30.0382 43.8488 30.4774 43.8332L31.2759 43.8048L30.8747 41.216ZM28.979 2.26188C28.9043 2.14094 28.805 2.04208 28.7582 2.04208C28.7114 2.04208 28.6162 2.02362 28.5466 2.00095C28.477 1.97839 28.3559 1.98415 28.2775 2.01375C28.1992 2.04335 28.0601 2.13459 27.9687 2.21646C27.8369 2.33466 27.8025 2.52379 27.8025 3.13182V3.8982H29.247L29.1808 3.18994C29.1444 2.80035 29.0536 2.38282 28.979 2.26188ZM29.8104 9.47623C29.6376 7.671 29.4757 6.11695 29.4506 6.02297C29.4117 5.87741 29.286 5.85201 28.6037 5.85201H27.8025L27.8017 8.17216C27.8013 9.44829 27.7574 10.7781 27.7041 11.1273C27.6508 11.4765 27.4825 12.026 27.3302 12.3484C27.1778 12.6708 26.869 13.1269 26.644 13.362C26.4189 13.597 26.0637 13.9015 25.8547 14.0387C25.6456 14.1758 25.2249 14.3682 24.9198 14.4661C24.4105 14.6295 23.925 14.6441 19.0052 14.6441H13.6453V16.6957H13.9152C14.0637 16.6957 15.122 16.7615 16.2668 16.8421C17.4118 16.9226 18.6641 17.0588 19.0496 17.1446C19.4418 17.232 20.1221 17.4958 20.5933 17.7435C21.0933 18.0063 21.6857 18.4216 22.0505 18.7654C22.3886 19.0839 22.8791 19.6733 23.1405 20.0751C23.4287 20.5182 23.7141 21.1213 23.8658 21.608C24.0534 22.2095 24.1196 22.6368 24.1302 23.3137L24.1444 24.2168L28.4676 24.2178V22.1303C28.4676 20.6924 28.5131 19.7727 28.6138 19.1751C28.6942 18.6979 28.9118 17.8679 29.0973 17.3306C29.2829 16.7933 29.5398 16.002 29.6684 15.5722C29.7968 15.1424 29.9521 14.3335 30.0133 13.7746C30.1151 12.8438 30.0981 12.4832 29.8104 9.47623ZM25.309 9.22448C25.1462 9.02138 24.839 8.77393 24.6262 8.67458C24.4135 8.57523 24.024 8.49297 23.7607 8.4918C23.4482 8.49043 23.1368 8.56595 22.8636 8.70945C22.6335 8.8303 22.3272 9.08312 22.183 9.27117C22.0389 9.45923 21.8672 9.82186 21.8015 10.0771C21.7057 10.4496 21.7057 10.6327 21.8015 11.0052C21.8672 11.2603 22.0404 11.6231 22.1865 11.8111C22.3327 11.9992 22.6191 12.2512 22.8232 12.3713C23.0883 12.5271 23.3513 12.5899 23.7444 12.5911C24.1069 12.5921 24.4197 12.527 24.6616 12.4001C24.8635 12.2942 25.1583 12.0458 25.3169 11.8481C25.4754 11.6503 25.6548 11.2754 25.7156 11.0149C25.7997 10.6548 25.7997 10.4275 25.7156 10.0675C25.6548 9.80691 25.4718 9.42748 25.309 9.22448ZM11.745 16.5003V14.6441L11.1987 14.6481C10.8982 14.6502 10.5358 14.717 10.3934 14.7964C10.251 14.8759 10.0907 15.0251 10.0371 15.128C9.98353 15.231 9.93973 15.4309 9.93973 15.5722C9.93973 15.7136 9.9859 15.918 10.0423 16.0265C10.0989 16.135 10.2899 16.2859 10.4669 16.362C10.6439 16.438 11.0039 16.5003 11.2669 16.5003H11.745ZM23.658 40.306C24.6304 38.5516 25.0384 37.7273 24.9984 37.5976C24.9667 37.495 24.6682 36.74 24.3351 35.9198C23.7932 34.5855 23.7199 34.4541 23.638 34.6717C23.5877 34.8055 23.0237 36.1458 22.3846 37.6503C21.7456 39.1547 21.0815 40.7227 20.909 41.1347L20.5952 41.8838L21.4086 42.3836C21.8559 42.6585 22.2304 42.8708 22.241 42.8556C22.2515 42.8404 22.8892 41.693 23.658 40.306ZM22.0612 45.1437L20.7366 44.3277C20.008 43.8789 19.3865 43.5028 19.3553 43.4919C19.3241 43.4809 19.1276 43.5629 18.9186 43.674C18.7096 43.7852 18.446 43.9631 18.3328 44.0695C18.2197 44.1759 18.0996 44.3754 18.066 44.5129C18.0325 44.6504 18.0555 44.8881 18.1172 45.0413C18.2042 45.2573 18.6773 45.5958 20.2277 46.5518C21.3267 47.2294 22.3584 47.8397 22.5201 47.9079C22.7049 47.986 22.8926 48.0014 23.0251 47.9498C23.1411 47.9044 23.2633 47.7556 23.2967 47.6192C23.33 47.4826 23.3295 47.2964 23.2955 47.2055C23.2615 47.1145 22.9699 46.6134 22.6475 46.0919L22.0612 45.1437ZM34.9773 47.1791C34.9342 47.0395 34.5515 46.7869 33.7825 46.3905L32.6511 45.8074H29.5267L29.2346 46.3322C29.074 46.6208 28.9426 46.992 28.9426 47.1571C28.9426 47.3334 29.0372 47.5703 29.1718 47.7313L29.401 48.0054L31.8965 48.0346C33.6508 48.0551 34.472 48.0297 34.6615 47.949C34.8097 47.8859 34.9556 47.733 34.9858 47.6094C35.0161 47.4857 35.0122 47.2921 34.9773 47.1791Z" fill="white"/>
<path d="M20.7366 44.3277L22.0612 45.1437L22.6475 46.0919C22.9699 46.6134 23.2615 47.1145 23.2955 47.2055C23.3295 47.2964 23.33 47.4826 23.2967 47.6192C23.2633 47.7556 23.1411 47.9044 23.0251 47.9498C22.8926 48.0014 22.7049 47.986 22.5201 47.9079C22.3584 47.8397 21.3267 47.2294 20.2277 46.5518C18.6773 45.5958 18.2042 45.2573 18.1172 45.0413C18.0555 44.8881 18.0325 44.6504 18.066 44.5129C18.0996 44.3754 18.2197 44.1759 18.3328 44.0695C18.446 43.9631 18.7096 43.7852 18.9186 43.674C19.1276 43.5629 19.3241 43.4809 19.3553 43.4919C19.3865 43.5028 20.008 43.8789 20.7366 44.3277Z" fill="white"/>
<path d="M33.7825 46.3905C34.5515 46.7869 34.9342 47.0395 34.9773 47.1791C35.0122 47.2921 35.0161 47.4857 34.9858 47.6094C34.9556 47.733 34.8097 47.8859 34.6615 47.949C34.472 48.0297 33.6508 48.0551 31.8965 48.0346L29.401 48.0054L29.1718 47.7313C29.0372 47.5703 28.9426 47.3334 28.9426 47.1571C28.9426 46.992 29.074 46.6208 29.2346 46.3322L29.5267 45.8074H32.6511L33.7825 46.3905Z" fill="white"/>
</svg>

<svg width="50" height="50" fill="none" xmlns="http://www.w3.org/2000/svg"><path fill-rule="evenodd" clip-rule="evenodd" d="M27.547.12a3.99 3.99 0 0 0-.723.42c-.296.216-.51.489-.719.92l-.298.613v4.94l-.546-.262c-.479-.23-.665-.263-1.497-.264-.872 0-1.002.026-1.592.313a5.41 5.41 0 0 0-1.166.821 4.182 4.182 0 0 0-.804 1.104 5.342 5.342 0 0 0-.377 1.233 4.075 4.075 0 0 0-.008 1.194c.049.307.173.754.277.994l.188.437-5.053.03c-4.929.028-5.062.034-5.49.237a4.05 4.05 0 0 0-.84.58 3.65 3.65 0 0 0-.647.866c-.202.401-.25.633-.252 1.227-.003.565.048.851.221 1.249.135.31.41.686.69.945.255.237.666.499.913.582.3.102 1.783.248 4.492.444 3.21.232 4.172.333 4.67.49.344.11.89.381 1.214.604a5.1 5.1 0 0 1 .968.896c.208.272.476.694.596.94.119.244.27.68.337.969.066.288.099.793.072 1.123a7.86 7.86 0 0 1-.245 1.283 11.523 11.523 0 0 0-.296 1.514 7.259 7.259 0 0 0-.011 1.616c.048.432.139 1.003.202 1.27.062.267.283.917.491 1.445l.378.96-4.125 9.72-.538.304a10.7 10.7 0 0 0-.932.597c-.268.2-.49.493-.693.92-.244.508-.3.743-.297 1.25.001.345.044.77.095.947.05.177.177.462.281.635.104.173.31.432.457.575.148.144 1.31.901 2.585 1.683 1.274.782 2.465 1.45 2.646 1.486.181.035.582.04.89.011.359-.033.712-.143.982-.305.23-.14.553-.419.715-.62.163-.202.363-.604.446-.894a3.12 3.12 0 0 0 .106-.996 3.214 3.214 0 0 0-.277-.939 19.07 19.07 0 0 0-.74-1.273l-.506-.805 2.238-4.036.373.918c.205.505.62 1.535.922 2.288l.55 1.37-.438.828c-.416.788-.437.865-.437 1.61 0 .614.046.877.215 1.23.119.247.375.614.57.816.195.201.526.46.735.576.363.2.518.212 3.443.24 2.843.027 3.093.016 3.473-.157.226-.103.559-.32.74-.485.182-.163.427-.497.545-.74a3.43 3.43 0 0 0 .27-.921c.036-.306.001-.67-.095-1.01a2.948 2.948 0 0 0-.498-.95c-.269-.323-.654-.575-1.69-1.108a45.635 45.635 0 0 1-1.379-.723c-.02-.02-.243-1.378-.496-3.02-.254-1.642-.5-3.062-.549-3.155 0-.19-1.4-9.494-1.587-10.69l-.34-2.177.051-2.491c.035-1.68.098-2.698.194-3.126.078-.35.355-1.259.617-2.02.261-.762.55-1.773.64-2.247.11-.579.162-1.312.158-2.23-.004-.926-.161-2.886-.488-6.076-.436-4.254-.505-4.753-.716-5.177a3.486 3.486 0 0 0-.55-.782 3.185 3.185 0 0 0-.745-.51c-.296-.138-.619-.197-1.045-.194-.34.003-.754.057-.92.12Zm3.328 41.096c-.221-1.424-.404-2.775-.407-3.002a4054.56 4054.56 0 0 0-1.86-11.725l-.049-.22h-4.922l-.069.658c-.046.448-.021.927.078 1.504.121.702.645 2.086 3.07 8.11 1.609 3.995 2.933 7.277 2.944 7.292.01.016.378.016.817 0l.799-.028-.401-2.589ZM28.979 2.262c-.075-.121-.174-.22-.22-.22a.861.861 0 0 1-.212-.041.477.477 0 0 0-.27.013c-.078.03-.217.12-.308.202-.132.119-.167.308-.167.916v.766h1.445l-.066-.708c-.037-.39-.127-.807-.202-.928Zm.831 7.214c-.172-1.805-.334-3.36-.36-3.453-.038-.146-.164-.171-.846-.171h-.802v2.32c0 1.276-.045 2.606-.098 2.955-.053.35-.221.899-.374 1.221a4.598 4.598 0 0 1-.686 1.014c-.225.235-.58.54-.79.677a4.61 4.61 0 0 1-.934.427c-.51.164-.995.178-5.915.178h-5.36v2.052h.27c.149 0 1.207.066 2.352.146 1.145.08 2.397.217 2.783.303.392.087 1.072.35 1.543.599a7.33 7.33 0 0 1 1.457 1.021c.339.319.83.908 1.09 1.31a6.75 6.75 0 0 1 .726 1.533c.187.601.254 1.029.264 1.706l.014.903h4.324V22.13c0-1.438.045-2.357.146-2.955.08-.477.298-1.307.483-1.844.186-.538.443-1.329.571-1.759.129-.43.284-1.238.345-1.797.102-.931.085-1.292-.203-4.299Zm-4.501-.252a2.304 2.304 0 0 0-.683-.55 2.467 2.467 0 0 0-.865-.182 1.921 1.921 0 0 0-.897.217c-.23.121-.537.374-.681.562-.144.188-.316.55-.381.806-.096.373-.096.556 0 .928.065.255.238.618.384.806.147.188.433.44.637.56.265.156.528.219.921.22.363.001.676-.064.918-.19.201-.107.496-.355.655-.553a2.49 2.49 0 0 0 .399-.833 1.81 1.81 0 0 0 0-.947 2.52 2.52 0 0 0-.407-.844ZM11.745 16.5v-1.856l-.546.004c-.3.002-.663.069-.806.148-.142.08-.302.23-.356.332a1.148 1.148 0 0 0-.097.444c0 .142.046.346.102.454.057.109.248.26.425.336.177.076.537.138.8.138h.478Zm11.913 23.806c.972-1.754 1.38-2.579 1.34-2.708-.031-.103-.33-.858-.663-1.678-.542-1.334-.615-1.466-.697-1.248-.05.134-.614 1.474-1.253 2.978a963.594 963.594 0 0 0-1.476 3.485l-.314.749.814.5c.447.274.821.487.832.472.01-.016.648-1.163 1.417-2.55Zm-1.597 4.838-1.324-.816a54.475 54.475 0 0 0-1.382-.836c-.03-.011-.227.07-.436.182a3.34 3.34 0 0 0-.586.395 1.076 1.076 0 0 0-.267.444c-.034.137-.01.375.051.528.087.216.56.555 2.11 1.51 1.1.678 2.131 1.289 2.293 1.357.185.078.373.093.505.042a.524.524 0 0 0 .272-.33.853.853 0 0 0-.002-.414c-.034-.092-.325-.593-.648-1.114l-.586-.948Zm12.916 2.035c-.043-.14-.425-.392-1.194-.788l-1.132-.584h-3.124l-.292.525c-.161.289-.292.66-.292.825 0 .176.094.413.229.574l.229.274 2.495.03c1.755.02 2.576-.005 2.765-.086.149-.063.295-.216.325-.34a.956.956 0 0 0-.009-.43Z" fill="#fff"/><path d="m20.737 44.328 1.324.816.587.948c.322.521.614 1.023.648 1.114a.843.843 0 0 1 0 .413.524.524 0 0 1-.27.33c-.133.052-.321.037-.506-.041-.162-.068-1.193-.679-2.292-1.356-1.55-.956-2.024-1.295-2.11-1.51a1.024 1.024 0 0 1-.052-.53c.034-.137.154-.336.267-.443a3.34 3.34 0 0 1 .586-.395c.209-.111.405-.193.436-.182.032.01.653.387 1.382.836Zm13.045 2.062c.77.397 1.152.65 1.195.79a.956.956 0 0 1 .009.43c-.03.123-.176.276-.325.339-.189.08-1.01.106-2.765.086l-2.495-.03-.23-.274a.998.998 0 0 1-.228-.574c0-.165.131-.536.292-.825l.292-.525h3.124l1.131.584Z" fill="#fff"/></svg>
